public/images/Logo.svg

<svg width="28" height="28" viewBox="0 0 28 28" fill="none" xmlns="http://www.w3.org/2000/svg">
<g clip-path="url(#clip0_2_110)">
<path d="M0.575317 28.0001H10.0685C14.57 28.0001 18.2192 24.3509 18.2192 19.8494H8.726C4.2245 19.8494 0.575317 23.4986 0.575317 28.0001Z" fill="#F22BB2"/>
<path d="M0 8.15069V20.137C4.5015 20.137 8.15069 16.4878 8.15069 11.9863V0C3.64919 0 0 3.64919 0 8.15069Z" fill="#8C30F5"/>
<path d="M27.4247 0H17.9315C13.43 0 9.78082 3.64919 9.78082 8.15068H19.274C23.7755 8.15068 27.4247 4.5015 27.4247 0Z" fill="#FE9A22"/>
<path d="M27.4247 19.3698V7.38354C22.9232 7.38354 19.274 11.0327 19.274 15.5342V27.5205C23.7755 27.5205 27.4247 23.8713 27.4247 19.3698Z" fill="#2EC5CE"/>
</g>
<defs>
<clipPath id="clip0_2_110">
<rect width="28" height="28" fill="white"/>
</clipPath>
</defs>
</svg>

<svg xmlns="http://www.w3.org/2000/svg" width="28" height="28" fill="none"><g clip-path="url(#a)"><path fill="#F22BB2" d="M.575 28h9.494a8.15 8.15 0 0 0 8.15-8.15H8.726A8.15 8.15 0 0 0 .576 28Z"/><path fill="#8C30F5" d="M0 8.15v11.987a8.15 8.15 0 0 0 8.15-8.15V0A8.15 8.15 0 0 0 0 8.15Z"/><path fill="#FE9A22" d="M27.425 0H17.93a8.15 8.15 0 0 0-8.15 8.15h9.493A8.15 8.15 0 0 0 27.424 0Z"/><path fill="#2EC5CE" d="M27.425 19.37V7.384a8.15 8.15 0 0 0-8.151 8.15V27.52a8.15 8.15 0 0 0 8.15-8.15Z"/></g><defs><clipPath id="a"><path fill="#fff" d="M0 0h28v28H0z"/></clipPath></defs></svg>
